svg/work-doodle-linda.svg

<svg width="303" height="400" viewBox="0 0 303 400" fill="none" xmlns="http://www.w3.org/2000/svg">
<path d="M149.172 67.3483C148.331 67.8966 148.743 67.5516 149.172 67.0983C149.879 66.3507 150.342 65.387 150.922 64.5427C153.018 61.491 155.972 59.2743 158.866 57.0427C162.427 54.297 166.37 52.9182 170.672 51.7233C173.979 50.8046 177.3 52.9496 180.603 53.0844C182.835 53.1755 185.297 53.0151 187.408 52.2233C189.463 51.4526 191.33 50.1027 193.283 49.0983C193.63 48.92 195.915 47.4754 195.922 47.6539C195.984 49.2577 195.569 50.6944 195.172 52.2372C194.733 53.9432 193.483 54.8911 192.061 55.8483C191.78 56.0371 189.595 57.2345 190.464 57.7233C193.408 59.3797 199.319 59.4497 201.616 56.5983C202.863 55.0502 204.371 53.7791 205.672 52.2927C207.526 50.1739 209.262 48.0146 211.45 46.2094C216.227 42.2686 221.592 40.0983 227.908 40.0983C228.062 40.0983 229.806 40.2228 229.366 40.3483C228.23 40.673 227.133 41.1077 226.061 41.6122C222.563 43.2585 218.681 46.3206 216.533 49.5427C215.565 50.9946 214.587 53.5414 216.728 54.5427C219.804 55.9817 223.883 54.354 226.672 52.9594C230.424 51.0834 233.531 48.4432 236.672 45.7094C240.425 42.4425 244.255 40.1106 248.922 38.3483C255.479 35.8723 262.682 34.9719 269.366 37.5427C269.827 37.7198 268.42 38.07 268.311 38.0983C266.834 38.4828 265.373 38.8691 263.922 39.3483C260.398 40.5122 256.27 41.5765 253.436 44.1122C251.438 45.8999 250.892 48.3504 250.297 50.8622C249.737 53.2254 250.001 55.4609 248.616 57.5983C245.513 62.3887 240.154 64.0859 234.811 64.3344C226.549 64.7187 217.913 63.2876 211.422 69.5983C209.402 71.5621 209.117 74.8471 207.797 77.2233C207.1 78.4781 206.717 77.2376 205.783 76.4733C204.477 75.405 202.759 75.12 201.172 74.7233C199.387 74.2771 198.079 73.4424 196.422 72.8483C195.041 72.3533 193.74 72.1465 192.311 71.9039C190.779 71.6438 189.49 70.8056 187.936 70.5983C185.422 70.2631 183.243 69.5983 180.672 69.5983C177.572 69.5983 174.512 69.767 171.422 69.8483C168.937 69.9137 166.212 71.0968 163.922 71.9872C159.051 73.8815 154.271 76.8244 149.047 77.5983C146.215 78.0179 143.593 77.8346 140.797 77.3483C139.524 77.127 138.523 76.8506 137.408 76.2233C136.994 75.9905 136.594 75.6985 136.172 75.4872C135.532 75.1673 136.857 74.9978 137.228 74.7927C138.947 73.8414 140.672 72.6776 142.478 71.9039C144.224 71.1554 145.787 70.7333 147.172 69.3483C149.327 67.1929 151.853 65.227 152.422 62.0983" stroke="#15CE79" stroke-width="3" stroke-linecap="round"/>
</svg>

<svg xmlns="http://www.w3.org/2000/svg" width="303" height="400" fill="none"><path stroke="#15CE79" stroke-linecap="round" stroke-width="3" d="M149.172 67.348c-.841.549-.429.204 0-.25.707-.747 1.17-1.711 1.75-2.555 2.096-3.052 5.05-5.269 7.944-7.5 3.561-2.746 7.504-4.125 11.806-5.32 3.307-.918 6.628 1.227 9.931 1.361 2.232.091 4.694-.069 6.805-.86 2.055-.771 3.922-2.121 5.875-3.126.347-.178 2.632-1.623 2.639-1.444.062 1.604-.353 3.04-.75 4.583-.439 1.706-1.689 2.654-3.111 3.611-.281.19-2.466 1.386-1.597 1.875 2.944 1.657 8.855 1.727 11.152-1.125 1.247-1.548 2.755-2.819 4.056-4.305 1.854-2.12 3.59-4.278 5.778-6.084 4.777-3.94 10.142-6.11 16.458-6.11.154 0 1.898.124 1.458.25a21.91 21.91 0 0 0-3.305 1.263c-3.498 1.646-7.38 4.709-9.528 7.93-.968 1.453-1.946 4 .195 5 3.076 1.44 7.155-.188 9.944-1.583 3.752-1.876 6.859-4.516 10-7.25 3.753-3.267 7.583-5.598 12.25-7.36 6.557-2.477 13.76-3.377 20.444-.806.461.177-.946.527-1.055.555-1.477.385-2.938.771-4.389 1.25-3.524 1.164-7.652 2.229-10.486 4.764-1.998 1.788-2.544 4.238-3.139 6.75-.56 2.363-.296 4.599-1.681 6.736-3.103 4.79-8.462 6.488-13.805 6.736-8.262.385-16.898-1.046-23.389 5.264-2.02 1.964-2.305 5.25-3.625 7.625-.697 1.255-1.08.015-2.014-.75-1.306-1.068-3.024-1.353-4.611-1.75-1.785-.446-3.093-1.28-4.75-1.875-1.381-.495-2.682-.701-4.111-.944-1.532-.26-2.821-1.098-4.375-1.306-2.514-.335-4.693-1-7.264-1-3.1 0-6.16.169-9.25.25-2.485.066-5.21 1.249-7.5 2.14-4.871 1.894-9.651 4.836-14.875 5.61-2.832.42-5.454.237-8.25-.25-1.273-.221-2.274-.497-3.389-1.125-.414-.233-.814-.525-1.236-.736-.64-.32.685-.49 1.056-.694 1.719-.952 3.444-2.115 5.25-2.89 1.746-.748 3.309-1.17 4.694-2.555 2.155-2.155 4.681-4.121 5.25-7.25"/></svg>
